OFDR/img/icons/contact/call-white.svg

<svg width="19" height="19" viewBox="0 0 19 19" fill="none" xmlns="http://www.w3.org/2000/svg">
<path d="M18.5741 15.0281L15.6398 12.0869C15.0554 11.5034 14.0875 11.5212 13.4827 12.1276L12.0044 13.6089C11.911 13.5573 11.8143 13.5034 11.7127 13.4462C10.7792 12.9278 9.50148 12.2172 8.15698 10.8687C6.80849 9.51732 6.09888 8.23477 5.58004 7.29853C5.52529 7.19934 5.47283 7.10371 5.42103 7.01289L6.41318 6.01997L6.90096 5.53048C7.5067 4.92321 7.5234 3.95343 6.94032 3.36831L4.00606 0.426755C3.42298 -0.157541 2.45468 -0.139815 1.84895 0.467459L1.02197 1.30107L1.04457 1.32355C0.767275 1.67818 0.535559 2.08718 0.363123 2.52825C0.204169 2.94809 0.105206 3.34873 0.0599541 3.75019C-0.327495 6.9695 1.14031 9.91172 5.12376 13.9042C10.6301 19.4227 15.0675 19.0058 15.2589 18.9854C15.6758 18.9355 16.0754 18.8356 16.4815 18.6776C16.9177 18.5068 17.3255 18.2749 17.6791 17.9975L17.6972 18.0136L18.535 17.1914C19.1395 16.5842 19.1569 15.6141 18.5741 15.0281Z" fill="white"/>
</svg>

<svg width="19" height="19" fill="none" xmlns="http://www.w3.org/2000/svg"><path d="M18.574 15.028l-2.934-2.941c-.585-.584-1.553-.566-2.157.04l-1.479 1.482-.291-.163c-.934-.518-2.212-1.229-3.556-2.577-1.349-1.352-2.058-2.634-2.577-3.57-.055-.1-.107-.195-.159-.286l.992-.993.488-.49c.606-.607.622-1.577.04-2.162L4.005.427c-.582-.585-1.55-.567-2.155.04l-.827.834.023.023a4.796 4.796 0 00-.682 1.204c-.159.42-.258.82-.303 1.222-.387 3.22 1.08 6.162 5.064 10.154 5.506 5.519 9.944 5.102 10.135 5.081a4.95 4.95 0 001.223-.307 4.768 4.768 0 001.197-.68l.018.016.838-.823c.605-.607.622-1.577.04-2.163z" fill="#fff"/></svg>
